images/svg/vector1.svg

<svg width="18" height="15" viewBox="0 0 18 15" fill="none" xmlns="http://www.w3.org/2000/svg">
<path d="M1 6.5C0.447715 6.5 0 6.94772 0 7.5C0 8.05228 0.447715 8.5 1 8.5V6.5ZM17.7071 8.20711C18.0976 7.81658 18.0976 7.18342 17.7071 6.79289L11.3431 0.428932C10.9526 0.0384078 10.3195 0.0384078 9.92893 0.428932C9.53841 0.819457 9.53841 1.45262 9.92893 1.84315L15.5858 7.5L9.92893 13.1569C9.53841 13.5474 9.53841 14.1805 9.92893 14.5711C10.3195 14.9616 10.9526 14.9616 11.3431 14.5711L17.7071 8.20711ZM1 8.5H17V6.5H1V8.5Z" fill="white"/>
</svg>

<svg xmlns="http://www.w3.org/2000/svg" width="18" height="15" fill="none"><path fill="#fff" d="M1 6.5a1 1 0 0 0 0 2v-2Zm16.707 1.707a1 1 0 0 0 0-1.414L11.343.429A1 1 0 1 0 9.93 1.843L15.586 7.5l-5.657 5.657a1 1 0 0 0 1.414 1.414l6.364-6.364ZM1 8.5h16v-2H1v2Z"/></svg>
